Obsidian-SemiLight/actions/16s/games-difficult.svg

<svg viewBox="0 0 16 16" xmlns="http://www.w3.org/2000/svg"><path d="m11 2v12h3v-12zm1 1h1v10h-1zm-6 2v9h3v-9zm1 1h1v7h-1zm-6 2v6h3v-6zm1 1h1v4h-1z" fill="#4d4d4d"/></svg>

<svg xmlns="http://www.w3.org/2000/svg" viewBox="0 0 16 16">
  <defs id="defs3051">
    <style type="text/css" id="current-color-scheme">
      .ColorScheme-Text {
        color:#4d4d4d;
      }
      </style>
  </defs>
 <path style="fill:currentColor;fill-opacity:1;stroke:none" 
     d="M 11 2 L 11 14 L 14 14 L 14 2 L 11 2 z M 12 3 L 13 3 L 13 13 L 12 13 L 12 3 z M 6 5 L 6 14 L 9 14 L 9 5 L 6 5 z M 7 6 L 8 6 L 8 13 L 7 13 L 7 6 z M 1 8 L 1 14 L 4 14 L 4 8 L 1 8 z M 2 9 L 3 9 L 3 13 L 2 13 L 2 9 z "
     class="ColorScheme-Text"
     />
</svg>
